assets/img/braze_icons/server-05.svg

<svg fill="none" height="24" viewBox="0 0 24 24" width="24" xmlns="http://www.w3.org/2000/svg"><path clip-rule="evenodd" d="m20 9c0 4.0796-3.0537 7.446-7 7.9381v.2326c.8524.3013 1.528.9769 1.8293 1.8293h6.1707c.5523 0 1 .4477 1 1s-.4477 1-1 1h-6.1707c-.4118 1.1652-1.5231 2-2.8293 2s-2.41746-.8348-2.82929-2h-6.17071c-.55228 0-1-.4477-1-1s.44772-1 1-1h6.17071c.30128-.8524.97689-1.528 1.82929-1.8293v-.2326c-3.94631-.4921-7-3.8585-7-7.9381 0-4.41828 3.58172-8 8-8 4.4183 0 8 3.58172 8 8zm-13.91705.99996h2.17968c.16876 1.60724.66792 3.15654 1.45933 4.55244-1.88724-.7751-3.29207-2.4844-3.63901-4.55244zm8.19755 4.55144c.791-1.3956 1.29-2.9445 1.4587-4.55144h2.1778c-.3467 2.06714-1.7505 3.77594-3.6365 4.55144zm3.6365-6.55144c-.3468-2.06709-1.7505-3.77579-3.6365-4.55137.7911 1.39563 1.29 2.9445 1.4587 4.55137zm-8.1951-4.55236c-1.88719.77511-3.29198 2.48438-3.63893 4.55236h2.17966c.16876-1.60725.66789-3.15647 1.45927-4.55236zm2.279.14043c.9299 1.30488 1.523 2.82087 1.725 4.41193h-3.45c.202-1.59106.7952-3.10705 1.725-4.41193zm0 10.82387c-.9298-1.3049-1.523-2.8209-1.725-4.41194h3.45c-.202 1.59104-.7951 3.10704-1.725 4.41194z" fill="#801ed7" fill-rule="evenodd"/></svg>

<svg width="24" height="24" viewBox="0 0 24 24" fill="none" xmlns="http://www.w3.org/2000/svg">
<path fill-rule="evenodd" clip-rule="evenodd" d="M20 9C20 13.0796 16.9463 16.446 13 16.9381V17.1707C13.8524 17.472 14.528 18.1476 14.8293 19H21C21.5523 19 22 19.4477 22 20C22 20.5523 21.5523 21 21 21H14.8293C14.4175 22.1652 13.3062 23 12 23C10.6938 23 9.58254 22.1652 9.17071 21H3C2.44772 21 2 20.5523 2 20C2 19.4477 2.44772 19 3 19H9.17071C9.47199 18.1476 10.1476 17.472 11 17.1707V16.9381C7.05369 16.446 4 13.0796 4 9C4 4.58172 7.58172 1 12 1C16.4183 1 20 4.58172 20 9ZM6.08295 9.99996H8.26263C8.43139 11.6072 8.93055 13.1565 9.72196 14.5524C7.83472 13.7773 6.42989 12.068 6.08295 9.99996ZM14.2805 14.5514C15.0715 13.1558 15.5705 11.6069 15.7392 9.99996H17.917C17.5703 12.0671 16.1665 13.7759 14.2805 14.5514ZM17.917 7.99996C17.5702 5.93287 16.1665 4.22417 14.2805 3.44859C15.0716 4.84422 15.5705 6.39309 15.7392 7.99996H17.917ZM9.7219 3.4476C7.83471 4.22271 6.42992 5.93198 6.08297 7.99996H8.26263C8.43139 6.39271 8.93052 4.84349 9.7219 3.4476ZM12.0009 3.58803C12.9308 4.89291 13.5239 6.4089 13.7259 7.99996H10.2759C10.4779 6.4089 11.0711 4.89291 12.0009 3.58803ZM12.0009 14.4119C11.0711 13.107 10.4779 11.591 10.2759 9.99996H13.7259C13.5239 11.591 12.9308 13.107 12.0009 14.4119Z" fill="#801ED7"/>
</svg>
